X: 19
T:Mountain Boy,The. WI.019
T:Had I The Wings Of A Dove. WI.019
M:2/4
L:1/16
Q:100
C:"Scotch Quadrilles.Had I The Wings Of A Dove"
S:Wm Irwin, 1838 MS, AGG's Transcription
R:Quadrille
O:England
A:Lake District
Z:vmp.Chris Partington.2005
K:Bb
F2|.B2(Bc) .d2(de)|.f2(gf) .d2(df)|(fe)(ed) .c2ce|(ed)(dc) B2F2|!
.B2(Bc) .d2(de)|.f2(gf) .d2(df)|f2ed c2dc|B6||!
df|feed c2F2|eddc .B2df|feed c2F2|eddc B2F2|!
B2Bc d2de|f2fb b4|{ag}f2ed c2dc|B4 B2||!
D2|G2GA B2Bc|d2d2 g2d2|(ed)(dc) c2e2|dcBA G2D2|!
G2GA B2Bc|d2g2 d2dc|.B2AG .A2G^F|G6|]
